!!!COM: Frescobaldi, Girolamo
!!!CDT: 1583///-1643
!!!ONM: No. 14
!!!OTL: No. 14: Canzon Terza &agrave; 2. Canto e Basso
!!!OPR: Canzoni da sonare a una, due, tre et quattro, libro primo
!!!PPP: Venezia
!!!PDT: 1634
!!!URL: http://icking-music-archive.org/ByComposer/Frescobaldi.html
!!!ONB: Andrea Friggi, ed.
**kern	**kern	**kern
!Basso ad Organo	!Basso	!Canto
*staff3	*staff2	*staff1
*Icello	*Icello	*Ivioln
*clefF4	*clefF4	*clefG2
*k[]	*k[]	*k[]
*met(C)	*met(C)	*met(C)
*M4/4	*M4/4	*M4/4
*MM120	*MM120	*MM120
=1-	=1-	=1-
2G\	2G\	1r
4G\	4G\	.
4G\	4G\	.
=2	=2	=2
2C/	2c\	2g/
4.BB/	4.B\	4g/
.	.	4g/
8BB/	8B\	.
=3	=3	=3
4AA/	4A\	2cc\
8E\L	8E\L	.
8F\J	8F\J	.
4G\	4G\	4.b\
4G\	4G\	.
.	.	8b\
=4	=4	=4
2F\	4.F\	4a/
.	.	4ff\
.	16E\LL	.
.	16D\JJ	.
2C/	8C\L	4ee\
.	8D\	.
.	8E\	4ee\
.	8F\J	.
=5	=5	=5
2G\	4G\	2dd\
.	4G\	.
2A\	2A\	[2cc\
=6	=6	=6
1G	1G	4cc\]
.	.	8b/L
.	.	8a/J
.	.	2b\
=7	=7	=7
2C/	4r	2cc\
.	4C/	.
4C/	4C/	2r
4C/	4C/	.
=8	=8	=8
2F\	2F\	4r
.	.	4cc\
4.E\	4.E\	4cc\
.	.	4cc\
8E\	8E\	.
=9	=9	=9
4D\	4D\	2ff\
8AA/L	8AA/L	.
8BB/J	8BB/J	.
2C/	2C/	4.ee\
.	.	8ee\
=10	=10	=10
2GG/	4r	2dd\
.	4G\	.
4AA/	4A\	2cc\
4C/	4c\	.
=11	=11	=11
2BB/	2B\	4r
.	.	4dd\
4C/	4c\	4ee\
4C/	4C/	4gg\
=12	=12	=12
4D\	4D\	2ff\
4F\	4F\	.
2E\	4.E\	4gg\
.	.	4gg\
.	8E\	.
=13	=13	=13
2F\	2F\	8aa\L
.	.	8gg\
.	.	8ff\
.	.	8ee\J
2G\	4.G\	4dd\
.	.	[4gg\
.	8G\	.
=14	=14	=14
2A\	2A\	4gg\]
.	.	4ff#\
2G\	2G\	4gg\
.	.	4dd\
=15	=15	=15
*clefC4	*clefC4	*
2c\	4r	1ee
.	4c\	.
4c\	4c\	.
4c\	4c\	.
=16	=16	=16
2f\	2f\	4r
.	.	4cc\
4.e\	4.e\	4cc\
.	.	4cc\
8e\	8e\	.
=17	=17	=17
4d\	4d\	4.ff\
4f\	4f\	.
.	.	8ff\
2c\	2c\	4ee\
.	.	4ee\
=18	=18	=18
*clefF4	*clefF4	*
2G\	4r	2dd\
.	4G\	.
4A\	4A\	4r
4c\	4c\	4a/
=19	=19	=19
4.G\	4.G\	4b\
.	.	4dd\
8F\	8F\	.
4E\	4E\	4.cc\
4F\	4F\	.
.	.	8cc\
=20	=20	=20
2D\	2D\	4ff\
.	.	4ee\
2G\	2G\	4dd\
.	.	8gg\L
.	.	8ff\J
=21	=21	=21
2C/	2C/	1ee
2c\	2c\	.
=22	=22	=22
1B-	2.B-\	1r
.	4B-\	.
=23	=23	=23
1A	1A	1r
=24	=24	=24
2G\	2G\	1r
2F#\	2F#\	.
=25	=25	=25
1G	1G	1r
=26	=26	=26
1E	1E	2r
.	.	2gg\
=27	=27	=27
1D	1D	2.ff\
.	.	4ff\
=28	=28	=28
1C	1C	1ee
=29	=29	=29
2BB/	1r	2dd\
2C/	.	2ee\
=30	=30	=30
4AA/	1r	1cc
4BB/	.	.
4C/	.	.
4D\	.	.
=31	=31	=31
4E\	1r	1b
4F\	.	.
[2G\	.	.
=32	=32	=32
2G\]	1r	1a
2F#\	.	.
=33	=33	=33
1G	1r	1b
=34	=34	=34
*M3/2	*M3/2	*M3/2
2.G\	2.G\	1.r
4A\	4A\	.
4B\	4B\	.
4G\	4G\	.
=35	=35	=35
1c	2c\	1.r
.	2c\	.
2B\	2B\	.
=36	=36	=36
1.A	1A	2.cc\
.	.	4dd\
.	2A\	4ee\
.	.	4cc\
=37	=37	=37
2.D\	1D	2ff\
.	.	2ff\
4D\	.	.
4E\	2r	2ee\
4F\	.	.
=38	=38	=38
2.GG/	2.GG/	1dd
4GG/	4GG/	.
4AA/	4AA/	2r
4BB/	4BB/	.
=39	=39	=39
2.C/	2.C/	1.r
4C/	4C/	.
4D\	4D\	.
4E\	4E\	.
=40	=40	=40
1F	2F\	2.cc\
.	2F\	.
.	.	4cc\
2E\	2E\	4dd\
.	.	4ee\
=41	=41	=41
1D	1D	2.ff\
.	.	4a/
2C/	2r	4b\
.	.	4cc\
=42	=42	=42
1BB	1.r	2.dd\
.	.	4dd\
2AA/	.	4ee\
.	.	4ff\
=43	=43	=43
2.GG/	2.G\	2.gg\
4G\	4G\	4gg\
4A\	4A\	2ff\
4B\	4B\	.
=44	=44	=44
2c\	2c\	2ee\
2B\	2B\	2dd\
2A\	2A\	2cc\
=45	=45	=45
2.G\	2.G\	2b\
.	.	2dd\
4F\	4F\	.
2E\	2E\	2cc#\
=46	=46	=46
2.D\	2.D\	2dd\
.	.	2ff\
4C/	4C/	.
2BB-/	2BB-/	2gg\
=47	=47	=47
*met(C)	*met(C)	*met(C)
*M4/4	*M4/4	*M4/4
2AA/	2AA/	2aa\
2F#\	2F#\	[2aa\
=48	=48	=48
1G	1G	2aa\]
.	.	[2gg\
=49	=49	=49
1E-	1E-	2gg\]
.	.	2g/
=50	=50	=50
1D	1D	2b-\
.	.	2a/
=51	=51	=51
*M2/2	*M2/2	*M2/2
4G\	4G\	2.r
4G\	4G\	.
4c\	4c\	.
=52	=52	=52
2B\	4B\	2.r
.	8A\L	.
.	8B\J	.
4c\	4c\	.
=53	=53	=53
2.F\	2.r	4cc\
.	.	4cc\
.	.	4ff\
=54	=54	=54
2C/	4C/	4ee\
.	4C/	8dd\L
.	.	8ee\J
4F\	4F\	4ff\
=55	=55	=55
2E\	4E\	2gg\
.	8D\L	.
.	8E\J	.
4F\	4F\	4aa\
=56	=56	=56
4D\	4D\	2aa\
2E\	2E\	.
.	.	4gg#\
=57	=57	=57
2AA/	8AA/L	2aa\
.	8BB/	.
.	8C/	.
.	8D/	.
4E\	8E/	4r
.	8F/J	.
=58	=58	=58
2.G\	2.G\	8g\L
.	.	8a\
.	.	8b\
.	.	8cc\
.	.	8dd\
.	.	8ee\J
=59	=59	=59
2D\	8D\L	4ff\
.	8E\	.
.	8F\	4ff\
.	8G\	.
4A\	8A\	4ff\
.	8B\J	.
=60	=60	=60
2c\	4c\	4.ee\
.	4c\	.
.	.	8ff\L
4B\	4B\	8dd\
.	.	8ee\J
=61	=61	=61
2A\	4.A\	4cc\
.	.	4cc\
.	8A\L	.
4G\	8G\	4b\
.	8A\J	.
=62	=62	=62
2F\	4.F\	8a\L
.	.	8b\
.	.	8cc\
.	8F\L	8dd\
8E\L	8E\	8ee\
8D\J	8D\J	8ff\J
=63	=63	=63
2E\	4.E\	4.gg\
.	8F\L	8aa\L
4D\	8D\	8ff\
.	8E\J	8gg\J
=64	=64	=64
2C/	4.C/	4.ee\
.	8D/L	8ff\L
4BB/	8BB/	8dd\
.	8C/J	8ee\J
=65	=65	=65
2AA/	2AA/	2cc\
4GG/	4GG/	4b\
=66	=66	=66
2.D\	2.D\	2.a/
=67	=67	=67
*met(C)	*met(C)	*met(C)
*M4/4	*M4/4	*M4/4
1GG	1GG	2b\
.	.	4r
.	.	4dd\
=68	=68	=68
2BB/	2r	4gg\
.	.	8gg\L
.	.	8gg\J
2D\	4r	8ff\L
.	.	8dd\
.	4D\	8ff\
.	.	8ee\J
=69	=69	=69
4G\	4G\	2dd\
8G\L	8G\L	.
8G\J	8G\J	.
2D\	8F\L	4r
.	8D\	.
.	8F\	4a/
.	8E\J	.
=70	=70	=70
4D\	4D\	4dd\
8C/L	8C/L	8dd\L
8BB/J	8BB/J	8dd\J
2AA/	2AA/	8cc\L
.	.	8a\
.	.	8cc\
.	.	8b\J
=71	=71	=71
*	*clefC4	*
2A\	4r	2a/
.	4A\	.
2D\	4d\	2r
.	8d\L	.
.	8d\J	.
=72	=72	=72
2.A\	8c\L	4r
.	8A\	.
.	8c\	4ee\
.	8B\J	.
.	4A\	4aa\
8G\L	8G/L	8aa\L
8F\J	8F/J	8aa\J
=73	=73	=73
*	*clefF4	*
4.E\	4.E\	8gg\L
.	.	8ee\
.	.	8gg\
8D\	8D\	8ff\J
4C/	4C/	4ee\
8BB/L	8BB/L	8dd\L
8AA/J	8AA/J	8cc\J
=74	=74	=74
4GG/	4GG/	2dd\
4G\	4G\	.
2c\	4c\	2ee\
.	8c\L	.
.	8c\J	.
=75	=75	=75
4B\	8B\L	4r
.	8G\	.
4c\	8c\	4g/
.	8B\J	.
4A\	4A\	4.cc\
8G\L	8G\L	.
8F\J	8F\J	8cc\
=76	=76	=76
4G\	8G/L	8b\L
.	8GG/	8dd\
4GG/	8BB/	8cc\
.	8C/J	8b\J
2D\	2D\	2a/
=77	=77	=77
2.GG/	2GG/	4b\
.	.	4g/
.	2r	4gg\
4BB/	.	8gg\L
.	.	8gg\J
=78	=78	=78
2D\	1r	4ff\
.	.	4a/
2C/	.	4cc\
.	.	8b\L
.	.	8cc\J
=79	=79	=79
2G\	4r	4.b\
.	4G\	.
.	.	8g/
4.F#\	4.F#\	4dd\
.	.	8dd\L
8Fn\	8Fn\	8dd\J
=80	=80	=80
4E\	4E\	4cc\
4E-\	4E-\	8g/L
.	.	8a/J
2D\	2D\	4b-\
.	.	4a/
=81	=81	=81
2G\	4r	4g/
.	4GG/	4gg\
4D\	4D\	4.ff#\
4D\	8D\L	.
.	8D\J	8ffn\
=82	=82	=82
4C#/	4C#/	4ee\
4Cn/	8G\L	4ee-\
.	8A\J	.
4BB-/	4B-\	2dd\
8D\L	8D\L	.
8E\J	8E\J	.
=83	=83	=83
2F\	2F\	2.cc\
4BB-/	4BB-/	.
4D\	4D\	4a/
=84	=84	=84
4.C#/	4.C#/	4ee\
.	.	8ee\L
8Cn/	8Cn/	8ee\J
4BB/	4BB/	4dd\
4BB-/	4BB-/	8dd\L
.	.	8ee\J
=85	=85	=85
2AA/	2AA/	4ff\
.	.	8ee\L
.	.	8ff\J
2GG/	2GG/	8gg\L
.	.	8dd\J
.	.	[4gg\
=86	=86	=86
1D	1D	4gg\]
.	.	8ff#\L
.	.	8ee\J
.	.	2ff#\
=87	=87	=87
2GG/	4r	2gg\
.	4GG/	.
2G\	4G\	2r
.	8G\L	.
.	8G\J	.
=88	=88	=88
4F\	4F\	1r
8C/L	8C/L	.
8D/J	8D/J	.
4E-\	4E-\	.
4BBn/	4BB/	.
=89	=89	=89
4.C/	4.C/	4r
.	.	4g/
8BB/	8BB/	.
2AA/	2AA/	4cc\
.	.	8cc\L
.	.	8cc\J
=90	=90	=90
2GG/	2GG/	4b\
.	.	2dd\
2AA/	2r	.
.	.	4cc#\
=91	=91	=91
*	*clefC4	*
2.D\	2r	4r
.	.	4dd\
.	4r	4ff\
4D\	4d\	8ff\L
.	.	8ff\J
=92	=92	=92
4.C#/	4.c#\	4ee\
.	.	2aa\
8Cn/	8cn\	.
4BB/	4B\	.
4BB-/	4B-\	4gg\
=93	=93	=93
4AA/	4A\	4aa\
*	*clefF4	*
4A\	4A\	4a/
4.F#\	4.F#\	4dd\
.	.	8dd\L
8Fn\	8Fn\	8dd\J
=94	=94	=94
4E\	4E\	4cc#\
4E-\	4E-\	4ccn\
4D\	4D\	4b\
4GG/	4GG/	[4b-\
=95	=95	=95
1D	4.D\	4b-\]
.	.	4a/
.	8C#/	.
.	2D\	2a/
=96	=96	=96
0GG	0GG	0g
==	==	==
*-	*-	*-
!!!ENC: Craig Stuart Sapp
!!!END: 2004/12/14/
